X:0419
T:The Feathers.
T:A new sett.
M:6/8
L:1/8
Q:3/8=120
I: :: :: ::
Z:Jack Campin * www.campin.me.uk * 2009
K:G
D| G2G G2g| gfe d3 |c2B A2G|FGA D3|
   G2G G2g| gfe d2c|BAG DGF|G3  G2::
   D2D D2d| dcB c2B|D2D D2c|cBA B2
G| G2G G2g| gfe d2c|BAG DGF|G3  G2::
A|TBAB G2A|TBAB G2A|BAG BAG|A2D D2
A|TBAB G2A|TBAB G2d|ecB AGF|G3  G2:|
<end>
<start>
